packages/core/src/svgs/networks/mono/fuse.svg

<svg width="24" height="24" viewBox="0 0 24 24" fill="none" xmlns="http://www.w3.org/2000/svg">
<path d="M8.66221 3.87581L11.862 2.03841C11.9069 2.01323 11.9575 2 12.0089 2C12.0603 2 12.1109 2.01323 12.1557 2.03841L20.5929 6.88191C20.6804 6.9319 20.7491 7.0319 20.7491 7.1319V10.463C20.7491 10.5692 20.6928 10.6692 20.599 10.713L17.4117 12.5504C17.2118 12.6691 16.9993 12.5254 16.9993 12.3004V9.31302C16.9993 9.20672 16.893 9.1131 16.8055 9.06304L8.66221 4.38829C8.61667 4.36277 8.57877 4.32557 8.55238 4.28054C8.526 4.23551 8.51209 4.18425 8.51209 4.13204C8.51209 4.07985 8.526 4.02859 8.55238 3.98356C8.57877 3.93852 8.61667 3.90133 8.66221 3.87581ZM6.59358 18.9563L3.39999 17.1189C3.3554 17.0938 3.3181 17.0577 3.29179 17.0138C3.26548 16.9699 3.25108 16.92 3.25 16.8688V7.18189C3.25 7.08189 3.30624 6.9819 3.39999 6.9319L6.29358 5.25699C6.33824 5.2312 6.38889 5.21764 6.44046 5.21764C6.49202 5.21764 6.54267 5.2312 6.58732 5.25699L9.78094 7.08815C9.98087 7.20689 9.98087 7.48812 9.78094 7.60062L7.18729 9.10056C7.09354 9.15685 6.9998 9.25047 6.9998 9.3505V18.7062C6.9998 18.9312 6.79356 19.0688 6.59358 18.9563ZM20.7491 16.8626C20.7491 16.9689 20.6928 17.0689 20.599 17.1189L12.2057 21.9624C12.1618 21.987 12.1124 22 12.0621 22C12.0116 22 11.9622 21.987 11.9183 21.9624L9.02469 20.3062C8.9801 20.2812 8.9428 20.245 8.91649 20.2011C8.89018 20.1573 8.87578 20.1073 8.8747 20.0561V16.3752C8.8747 16.1502 9.12473 16.0064 9.31212 16.1251L11.912 17.6063C11.9995 17.6563 12.112 17.6563 12.2057 17.6063L20.3053 12.9315C20.5054 12.8191 20.7428 12.9629 20.7428 13.1816H20.7491V16.8626Z" fill="white"/>
</svg>

<svg xmlns="http://www.w3.org/2000/svg" width="24" height="24" fill="none" viewBox="0 0 24 24">
    <path fill="#fff" d="m8.662 3.876 3.2-1.838a.3.3 0 0 1 .294 0l8.437 4.844c.087.05.156.15.156.25v3.331a.27.27 0 0 1-.15.25l-3.187 1.837c-.2.12-.413-.025-.413-.25V9.313c0-.106-.106-.2-.194-.25L8.662 4.388a.294.294 0 0 1 0-.512m-2.068 15.08L3.4 17.12a.3.3 0 0 1-.15-.25V7.182c0-.1.056-.2.15-.25l2.894-1.675a.3.3 0 0 1 .293 0l3.194 1.831c.2.119.2.4 0 .513L7.187 9.1c-.093.056-.187.15-.187.25v9.355c0 .225-.206.363-.406.25m14.155-2.093a.29.29 0 0 1-.15.256l-8.393 4.843a.3.3 0 0 1-.288 0l-2.893-1.656a.29.29 0 0 1-.15-.25v-3.68c0-.226.25-.37.437-.25l2.6 1.48c.087.05.2.05.294 0l8.1-4.675c.2-.112.437.032.437.25h.006z"/>
</svg>
